resources/images/tent.svg

<svg xmlns="http://www.w3.org/2000/svg" width="900" height="450" viewBox="0 0 900 450"><path fill="#566932" d="M610.095 131.471C500.922 105.529 401.76 75.313 312.609 40.822c40.702 36.464 139.866 66.68 297.486 90.649m-13.482 237.857l11.51-.878 1.972-236.979-13.482 237.857m127.038-7.782l-4.164-8.551c-19.291 5.92-51.299 10.704-96.019 14.358l100.183-5.807m30.692-1.864a4025.548 4025.548 0 0 0-13.59-19.84c-1.61 4.896-8.696 9.28-21.266 13.153l4.164 8.551 30.692-1.864m-315.461 19.839l53.928-3.507c-28.938-.219-17.501-40.265 34.31-120.134-29.378 42.748-58.791 83.962-88.238 123.641m-67.631-45.269l3.617 2.411c-31.056-24.261-56.267-45.196-75.632-62.807-19.365-17.758-35.88-35.075-49.545-51.956-5.845-7.308-9.134-15.785-9.865-25.43l-35.624 25.759 19.511 13.043 147.538 98.98M250.679 151.201a904.772 904.772 0 0 1 47.79-88.348c-38.583 58.387-74.901 108.223-108.953 149.511l14.687 9.865 35.624-25.759c-.95-12.934 2.667-28.025 10.852-45.269z"/><path fill="#6A823E" d="M608.123 368.45l15.346-1.097c44.72-3.654 76.728-8.438 96.019-14.358L610.095 131.471l-1.972 236.979m-46.258-163.43a8462.943 8462.943 0 0 1-34.746 50.86c-51.811 79.869-63.247 119.915-34.31 120.134l3.18-.33 100.624-6.355 13.481-237.857a5870.153 5870.153 0 0 1-48.229 73.548m157.622 147.975c12.569-3.873 19.655-8.257 21.266-13.153a1162.013 1162.013 0 0 1-10.413-15.455c-23.458-34.491-40.813-60.396-52.065-77.715-27.549-42.603-50.276-81.003-68.18-115.201l109.392 221.524M462.888 215.872v14.797l15.782-5.7-15.782-9.097m-167.159-71.139v11.29l14.03-2.301-14.03-8.989m6.357-87.689l-3.617 5.809a904.443 904.443 0 0 0-47.79 88.348c-8.185 17.245-11.802 32.335-10.852 45.27l55.902-40.447v-11.29l14.03 8.988-14.03 2.301-55.902 40.447c.731 9.646 4.02 18.122 9.865 25.43 13.665 16.881 30.18 34.198 49.545 51.956 19.365 17.61 44.576 38.546 75.632 62.807l11.181 7.454 76.839-113.448v-14.797l15.782 9.098-15.782 5.7-76.839 113.448 52.833 35.403c29.447-39.679 58.86-80.893 88.237-123.641a8495.013 8495.013 0 0 0 34.746-50.86 5859.529 5859.529 0 0 0 48.229-73.549c-157.62-23.969-256.784-54.185-297.485-90.649l-4.056 6.357c-2.193 3.361-4.349 6.65-6.468 9.865z"/><path fill="#5C7036" d="M740.753 339.842c1.605-4.748-1.865-9.901-10.413-15.455 3.288 4.969 6.759 10.12 10.413 15.455m-354.704 4.275l-.439.657c16.077 11.767 33.834 23.349 53.272 34.746l-52.833-35.403m-11.181-7.454a692.727 692.727 0 0 0 10.742 8.111l.439-.657-11.181-7.454z"/><path fill="none" stroke="#031C00" stroke-width="2" stroke-linecap="round" stroke-linejoin="round" d="M312.609 40.822l-4.056 6.357c-2.192 3.361-4.348 6.65-6.467 9.865l-3.617 5.809m-2.74 93.17v-11.29l14.03 8.988-14.03 2.302zm16.88-115.201c89.15 34.491 188.313 64.707 297.485 90.649 17.903 34.198 40.631 72.599 68.18 115.201 11.252 17.319 28.607 43.224 52.065 77.715m10.414 15.455c4.384 6.358 8.914 12.97 13.59 19.84l-30.691 1.864M462.888 230.669v-14.797l15.782 9.098-15.782 5.699zm-76.839 113.448l52.833 35.403c29.447-39.679 58.86-80.893 88.237-123.641a8495.013 8495.013 0 0 0 34.746-50.86 5859.529 5859.529 0 0 0 48.229-73.549M385.61 344.774a697.549 697.549 0 0 1-10.742-8.111l-3.617-2.411m3.617 2.411l11.181 7.454m-.439.657c16.077 11.767 33.834 23.349 53.272 34.746l53.928-3.507M204.203 222.229l19.511 13.043 147.538 98.979M298.469 62.853c-38.583 58.387-74.901 108.223-108.953 149.511l14.687 9.865m519.448 139.317l-100.183 5.808-15.346 1.097-11.51.878-100.624 6.355-3.18.33m115.315-7.564l1.972-236.979m130.658 208.371a1162.013 1162.013 0 0 1-10.413-15.455"/><g><path fill="none" stroke="#666" stroke-linecap="round" stroke-linejoin="round" d="M188.309 160.188l1.644-2.411v5.042m555.733 243.447c2.922-7.307 4.457-8.438 4.603-3.397m-389.122-58.642c-1.608-4.896-2.96-5.297-4.056-1.205M213.739 244.15c-1.608-4.895-2.923-5.297-3.945-1.206m-58.643 17.538c-1.754-7.452-3.252-8.514-4.495-3.179m195.548 151.376l-.768-1.426c-1.9-5.407-2.996-5.005-3.288 1.205"/></g><g><path fill="none" stroke="#031C00" stroke-linecap="round" stroke-linejoin="round" d="M295.729 156.023l-55.902 40.447m-49.874-33.651L312.609 40.822m411.042 320.724l22.034 44.72M462.888 230.669l-76.839 113.448m-14.798-9.865l-10.084 9.975m24.882-.11l-.439.657M223.713 235.272l-9.974 8.878m-62.588 16.332l53.051-38.253 35.624-25.759M385.61 344.774l-43.406 63.904m381.447-47.132l-4.164-8.551-109.392-221.524"/></g></svg>

<?xml version="1.0" encoding="utf-8"?>
<!-- Generator: Adobe Illustrator 16.0.0, SVG Export Plug-In . SVG Version: 6.00 Build 0)  -->
<!DOCTYPE svg PUBLIC "-//W3C//DTD SVG 1.1//EN" "http://www.w3.org/Graphics/SVG/1.1/DTD/svg11.dtd">
<svg version="1.1" id="Layer_1" xmlns="http://www.w3.org/2000/svg" xmlns:xlink="http://www.w3.org/1999/xlink" x="0px" y="0px"
	 width="900px" height="450px" viewBox="0 0 900 450" enable-background="new 0 0 900 450" xml:space="preserve">
<g transform="matrix( 1, 0, 0, 1, 0,0) ">
	<g>
		<g id="Layer0_0_FILL">
			<path fill="#566932" d="M610.095,131.471C500.922,105.529,401.76,75.313,312.609,40.822
				C353.311,77.286,452.475,107.502,610.095,131.471 M596.613,369.328l11.51-0.878l1.972-236.979L596.613,369.328 M723.651,361.546
				l-4.164-8.551c-19.291,5.92-51.299,10.704-96.019,14.358L723.651,361.546 M754.343,359.682c-4.676-6.87-9.206-13.481-13.59-19.84
				c-1.61,4.896-8.696,9.28-21.266,13.153l4.164,8.551L754.343,359.682 M438.882,379.521l53.928-3.507
				c-28.938-0.219-17.501-40.265,34.31-120.134C497.742,298.628,468.329,339.842,438.882,379.521 M371.251,334.252l3.617,2.411
				c-31.056-24.261-56.267-45.196-75.632-62.807c-19.365-17.758-35.88-35.075-49.545-51.956c-5.845-7.308-9.134-15.785-9.865-25.43
				l-35.624,25.759l19.511,13.043L371.251,334.252 M250.679,151.201c14.25-30.253,30.18-59.702,47.79-88.348
				c-38.583,58.387-74.901,108.223-108.953,149.511l14.687,9.865l35.624-25.759C238.877,183.536,242.494,168.445,250.679,151.201z"
				/>
			<path fill="#6A823E" d="M608.123,368.45l15.346-1.097c44.72-3.654,76.728-8.438,96.019-14.358L610.095,131.471L608.123,368.45
				 M561.865,205.02c-11.691,17.246-23.273,34.198-34.746,50.86c-51.811,79.869-63.247,119.915-34.31,120.134l3.18-0.33
				l100.624-6.355l13.481-237.857C594.019,156.388,577.94,180.905,561.865,205.02 M719.487,352.995
				c12.569-3.873,19.655-8.257,21.266-13.153c-3.654-5.335-7.125-10.485-10.413-15.455c-23.458-34.491-40.813-60.396-52.065-77.715
				c-27.549-42.603-50.276-81.003-68.18-115.201L719.487,352.995 M462.888,215.872v14.797l15.782-5.7L462.888,215.872
				 M295.729,144.733v11.29l14.03-2.301L295.729,144.733 M302.086,57.044l-3.617,5.809c-17.61,28.646-33.541,58.094-47.79,88.348
				c-8.185,17.245-11.802,32.335-10.852,45.27l55.902-40.447v-11.29l14.03,8.988l-14.03,2.301l-55.902,40.447
				c0.731,9.646,4.02,18.122,9.865,25.43c13.665,16.881,30.18,34.198,49.545,51.956c19.365,17.61,44.576,38.546,75.632,62.807
				l11.181,7.454l76.839-113.448v-14.797l15.782,9.098l-15.782,5.7l-76.839,113.448l52.833,35.403
				c29.447-39.679,58.86-80.893,88.237-123.641c11.473-16.662,23.055-33.615,34.746-50.86
				c16.075-24.114,32.153-48.631,48.229-73.549c-157.62-23.969-256.784-54.185-297.485-90.649l-4.056,6.357
				C306.361,50.54,304.205,53.829,302.086,57.044z"/>
			<path fill="#5C7036" d="M740.753,339.842c1.605-4.748-1.865-9.901-10.413-15.455
				C733.628,329.356,737.099,334.507,740.753,339.842 M386.049,344.117l-0.439,0.657c16.077,11.767,33.834,23.349,53.272,34.746
				L386.049,344.117 M374.868,336.663c3.508,2.703,7.088,5.407,10.742,8.111l0.439-0.657L374.868,336.663z"/>
		</g>
	</g>
	<g>
		<path id="Layer0_0_1_STROKES" fill="none" stroke="#031C00" stroke-width="2" stroke-linecap="round" stroke-linejoin="round" d="
			M312.609,40.822l-4.056,6.357c-2.192,3.361-4.348,6.65-6.467,9.865l-3.617,5.809 M295.729,156.023v-11.29l14.03,8.988
			L295.729,156.023z M312.609,40.822c89.15,34.491,188.313,64.707,297.485,90.649c17.903,34.198,40.631,72.599,68.18,115.201
			c11.252,17.319,28.607,43.224,52.065,77.715 M740.753,339.842c4.384,6.358,8.914,12.97,13.59,19.84l-30.691,1.864
			 M462.888,230.669v-14.797l15.782,9.098L462.888,230.669z M386.049,344.117l52.833,35.403
			c29.447-39.679,58.86-80.893,88.237-123.641c11.473-16.662,23.055-33.615,34.746-50.86c16.075-24.114,32.153-48.631,48.229-73.549
			 M385.61,344.774c-3.653-2.704-7.234-5.408-10.742-8.111l-3.617-2.411 M374.868,336.663l11.181,7.454 M385.61,344.774
			c16.077,11.767,33.834,23.349,53.272,34.746l53.928-3.507 M204.203,222.229l19.511,13.043l147.538,98.979 M298.469,62.853
			c-38.583,58.387-74.901,108.223-108.953,149.511l14.687,9.865 M723.651,361.546l-100.183,5.808l-15.346,1.097l-11.51,0.878
			l-100.624,6.355l-3.18,0.33 M608.123,368.45l1.972-236.979 M740.753,339.842c-3.654-5.335-7.125-10.485-10.413-15.455"/>
	</g>
	<g>
		<path id="Layer0_0_2_STROKES" fill="none" stroke="#666666" stroke-linecap="round" stroke-linejoin="round" d="M188.309,160.188
			l1.644-2.411v5.042 M745.686,406.266c2.922-7.307,4.457-8.438,4.603-3.397 M361.167,344.227c-1.608-4.896-2.96-5.297-4.056-1.205
			 M213.739,244.15c-1.608-4.895-2.923-5.297-3.945-1.206 M151.151,260.482c-1.754-7.452-3.252-8.514-4.495-3.179 M342.204,408.679
			l-0.768-1.426c-1.9-5.407-2.996-5.005-3.288,1.205"/>
	</g>
	<g>
		<path id="Layer0_0_3_STROKES" fill="none" stroke="#031C00" stroke-linecap="round" stroke-linejoin="round" d="M295.729,156.023
			l-55.902,40.447 M189.953,162.819L312.609,40.822 M723.651,361.546l22.034,44.72 M462.888,230.669l-76.839,113.448
			 M371.251,334.252l-10.084,9.975 M386.049,344.117l-0.439,0.657 M223.713,235.272l-9.974,8.878 M151.151,260.482l53.051-38.253
			l35.624-25.759 M385.61,344.774l-43.406,63.904 M723.651,361.546l-4.164-8.551L610.095,131.471"/>
	</g>
</g>
</svg>
